X: 23329
T: Legless Prince
R: waltz
M: 3/4
K: Cmajor
|:E3|EFE|B3|BAB|c5|d|cAG|F3|
E3|EFE|B3|BAG|1 A5|d|cAG|F3:|2 A4|cc|fed|edB||
|:Gcc|cde|dee|ege|Acc|cAd|cAG|F3|
Ecc|cde|dee|ege|Acc|cde|fed|edB:|

